dist/img/logo.svg

<svg width="80" height="80" viewBox="0 0 80 80" fill="none" xmlns="http://www.w3.org/2000/svg">
<path d="M11.8654 45.832H17.2414V49H7.76144V32.152H11.8654V45.832ZM27.1669 49.168C25.5829 49.168 24.1269 48.8 22.7989 48.064C21.4869 47.328 20.4389 46.304 19.6549 44.992C18.8869 43.664 18.5029 42.176 18.5029 40.528C18.5029 38.88 18.8869 37.4 19.6549 36.088C20.4389 34.776 21.4869 33.752 22.7989 33.016C24.1269 32.28 25.5829 31.912 27.1669 31.912C28.7509 31.912 30.1989 32.28 31.5109 33.016C32.8389 33.752 33.8789 34.776 34.6309 36.088C35.3989 37.4 35.7829 38.88 35.7829 40.528C35.7829 42.176 35.3989 43.664 34.6309 44.992C33.8629 46.304 32.8229 47.328 31.5109 48.064C30.1989 48.8 28.7509 49.168 27.1669 49.168ZM27.1669 45.424C28.5109 45.424 29.5829 44.976 30.3829 44.08C31.1989 43.184 31.6069 42 31.6069 40.528C31.6069 39.04 31.1989 37.856 30.3829 36.976C29.5829 36.08 28.5109 35.632 27.1669 35.632C25.8069 35.632 24.7189 36.072 23.9029 36.952C23.1029 37.832 22.7029 39.024 22.7029 40.528C22.7029 42.016 23.1029 43.208 23.9029 44.104C24.7189 44.984 25.8069 45.424 27.1669 45.424ZM49.2501 37.48C48.9461 36.92 48.5061 36.496 47.9301 36.208C47.3701 35.904 46.7061 35.752 45.9381 35.752C44.6101 35.752 43.5461 36.192 42.7461 37.072C41.9461 37.936 41.5461 39.096 41.5461 40.552C41.5461 42.104 41.9621 43.32 42.7941 44.2C43.6421 45.064 44.8021 45.496 46.2741 45.496C47.2821 45.496 48.1301 45.24 48.8181 44.728C49.5221 44.216 50.0341 43.48 50.3541 42.52H45.1461V39.496H54.0741V43.312C53.7701 44.336 53.2501 45.288 52.5141 46.168C51.7941 47.048 50.8741 47.76 49.7541 48.304C48.6341 48.848 47.3701 49.12 45.9621 49.12C44.2981 49.12 42.8101 48.76 41.4981 48.04C40.2021 47.304 39.1861 46.288 38.4501 44.992C37.7301 43.696 37.3701 42.216 37.3701 40.552C37.3701 38.888 37.7301 37.408 38.4501 36.112C39.1861 34.8 40.2021 33.784 41.4981 33.064C42.7941 32.328 44.2741 31.96 45.9381 31.96C47.9541 31.96 49.6501 32.448 51.0261 33.424C52.4181 34.4 53.3381 35.752 53.7861 37.48H49.2501ZM64.3154 49.168C62.7314 49.168 61.2754 48.8 59.9474 48.064C58.6354 47.328 57.5874 46.304 56.8034 44.992C56.0354 43.664 55.6514 42.176 55.6514 40.528C55.6514 38.88 56.0354 37.4 56.8034 36.088C57.5874 34.776 58.6354 33.752 59.9474 33.016C61.2754 32.28 62.7314 31.912 64.3154 31.912C65.8994 31.912 67.3474 32.28 68.6594 33.016C69.9874 33.752 71.0274 34.776 71.7794 36.088C72.5474 37.4 72.9314 38.88 72.9314 40.528C72.9314 42.176 72.5474 43.664 71.7794 44.992C71.0114 46.304 69.9714 47.328 68.6594 48.064C67.3474 48.8 65.8994 49.168 64.3154 49.168ZM64.3154 45.424C65.6594 45.424 66.7314 44.976 67.5314 44.08C68.3474 43.184 68.7554 42 68.7554 40.528C68.7554 39.04 68.3474 37.856 67.5314 36.976C66.7314 36.08 65.6594 35.632 64.3154 35.632C62.9554 35.632 61.8674 36.072 61.0514 36.952C60.2514 37.832 59.8514 39.024 59.8514 40.528C59.8514 42.016 60.2514 43.208 61.0514 44.104C61.8674 44.984 62.9554 45.424 64.3154 45.424Z" fill="#6F36BC"/>
<circle cx="40" cy="40" r="38" stroke="#6F36BC" stroke-width="4"/>
</svg>

<svg width="80" height="80" fill="none" xmlns="http://www.w3.org/2000/svg"><path d="M11.865 45.832h5.376V49h-9.48V32.152h4.104v13.68zm15.302 3.336c-1.584 0-3.04-.368-4.368-1.104a8.393 8.393 0 01-3.144-3.072c-.768-1.328-1.152-2.816-1.152-4.464 0-1.648.384-3.128 1.152-4.44a8.393 8.393 0 013.144-3.072c1.328-.736 2.784-1.104 4.368-1.104 1.584 0 3.032.368 4.344 1.104a7.998 7.998 0 013.12 3.072c.768 1.312 1.152 2.792 1.152 4.44 0 1.648-.384 3.136-1.152 4.464a8.216 8.216 0 01-3.12 3.072c-1.312.736-2.76 1.104-4.344 1.104zm0-3.744c1.344 0 2.416-.448 3.216-1.344.816-.896 1.224-2.08 1.224-3.552 0-1.488-.408-2.672-1.224-3.552-.8-.896-1.872-1.344-3.216-1.344-1.36 0-2.448.44-3.264 1.32-.8.88-1.2 2.072-1.2 3.576 0 1.488.4 2.68 1.2 3.576.816.88 1.904 1.32 3.264 1.32zM49.25 37.48a2.985 2.985 0 00-1.32-1.272c-.56-.304-1.224-.456-1.992-.456-1.328 0-2.392.44-3.192 1.32-.8.864-1.2 2.024-1.2 3.48 0 1.552.416 2.768 1.248 3.648.848.864 2.008 1.296 3.48 1.296 1.008 0 1.856-.256 2.544-.768.704-.512 1.216-1.248 1.536-2.208h-5.208v-3.024h8.928v3.816c-.304 1.024-.824 1.976-1.56 2.856-.72.88-1.64 1.592-2.76 2.136-1.12.544-2.384.816-3.792.816-1.664 0-3.152-.36-4.464-1.08a7.969 7.969 0 01-3.048-3.048c-.72-1.296-1.08-2.776-1.08-4.44 0-1.664.36-3.144 1.08-4.44a7.756 7.756 0 013.048-3.048c1.296-.736 2.776-1.104 4.44-1.104 2.016 0 3.712.488 5.088 1.464 1.392.976 2.312 2.328 2.76 4.056H49.25zm15.065 11.688c-1.584 0-3.04-.368-4.368-1.104a8.393 8.393 0 01-3.144-3.072c-.768-1.328-1.152-2.816-1.152-4.464 0-1.648.384-3.128 1.152-4.44a8.393 8.393 0 013.144-3.072c1.328-.736 2.784-1.104 4.368-1.104 1.584 0 3.032.368 4.344 1.104a7.998 7.998 0 013.12 3.072c.768 1.312 1.152 2.792 1.152 4.44 0 1.648-.384 3.136-1.152 4.464a8.216 8.216 0 01-3.12 3.072c-1.312.736-2.76 1.104-4.344 1.104zm0-3.744c1.344 0 2.416-.448 3.216-1.344.816-.896 1.224-2.08 1.224-3.552 0-1.488-.408-2.672-1.224-3.552-.8-.896-1.872-1.344-3.216-1.344-1.36 0-2.448.44-3.264 1.32-.8.88-1.2 2.072-1.2 3.576 0 1.488.4 2.68 1.2 3.576.816.88 1.904 1.32 3.264 1.32z" fill="#6F36BC"/><circle cx="40" cy="40" r="38" stroke="#6F36BC" stroke-width="4"/></svg>
